X:1
T:A Missionary Cry
T:A Missionary Cry
T:James H. Burke
T:Albert Benjamin Simpson, 1890
T:Public Domain Courtesy of the Cyber Hymnal™
T:Public Domain Courtesy of the Cyber Hymnal™
C:James H. Burke
Z:Public Domain
Z:Courtesy of the Cyber Hymnal™
%%score ( 1 2 ) ( 3 4 )
L:1/8
Q:1/4=110
M:4/4
K:G
V:1 treble 
V:2 treble 
V:3 bass 
V:4 bass 
V:1
 D2 | [B,G]2 [CG]2 (GF) (GA) | [DB]3 [CA] [B,G]2 [DF]2 | [DE]2 [CE]2 (EF) (GA) | %4
w: 1.~A|hun- dred thou- * sand *|souls a day Are|pass- ing one * by *|
w: 2.~O|Ho- ly Ghost, * Thy *|peo- ple move, Bap-|tize their hearts * with *|
w: 3.~The|Mas- ter’s com- * ing *|draw- eth near; The|Son of Man * will *|
w: 4.~Oh,|let us then * His *|com- ing haste, Oh,|let us end * this *|
w: 5.~They’re|pass- ing, pass- * ing, *|fast a- way, A|hun- dred thou- * sand *|
 [EG]3 [CE] [B,D]2 [B,D]2 | [CE]2 [DG]2 [^CB]2 [CA]2 | [DA]6 D2 | [DG]2 [B,G]2 (GF) ([DG][CA]) | %8
w: one a- way In|Christ- less guilt and|gloom; With-|out one ray * of *|
w: faith and love And|con- se- crate their|gold. At|Je- sus’ feet * their *|
w: soon ap- pear; His|king- dom is at|hand. But|ere that glor- * ious *|
w: aw- ful waste Of|souls that ne- ver|die. A|thou- sand mil- * lions *|
w: souls a day In|Christ- less guilt and|gloom. O|Church of Christ, * what *|
 [B,B]3 [CA] [B,G]2 [DF]2 | [DE]2 [CE]2 (EF) (GA) | [EG]3 [CE] [B,D]2 [B,D]2 | [DG]3 D [CG]2 (AB) | %12
w: hope or light, With|fu- ture dark * as *|end- less night, They’re|pass- ing to their *|
w: mil- lions pour, And|all their ranks * u- *|nite once more, As|in the days of *|
w: day can be, This|gos- pel of * the *|king- dom we Must|preach in ev- ery *|
w: still are lost; A|Sav- ior’s blood * has *|paid the cost, Oh,|hear their dy- ing *|
w: wilt thou say When,|in the aw- * ful *|judg- ment day, They|charge thee with their *|
 [Ec]6 [EA]2 | [B,G]2 D2 [DB]2 A2 | [B,G]6 ||"^Refrain" [CD]2 | G4 D4 | [DB]4 G4 | %18
w: doom, They’re|pass- ing to their|doom.||||
w: old, As|in the days of|old.||||
w: land, Must|preach in ev- ery|land.|They’re|pass- ing,|pass- ing|
w: cry, Oh,|hear their dy- ing|cry.||||
w: doom, They|charge thee with their|doom?||||
 [DF]3 [CE] [CE]2 [DE]2 | [Cc]2 [EA]2 [DF]2 [^CE]2 | D6 [B,D]2 | [B,G]2 D2 [CG]2 (AB) | %22
w: ||||
w: ||||
w: fast a- way In|thou- sands day by|day; They’re|pass- ing to their *|
w: ||||
w: ||||
 [Ec]6 [EA]2 | [B,G]2 D2 [DB]2 [CA]2 | [B,G]6 |] %25
w: |||
w: |||
w: doom, They’re|pass- ing to their|doom.|
w: |||
w: |||
V:2
 D2 | x4 D2 D2 | x8 | x4 C2 D2 | x8 | x8 | x6 D2 | x4 D2 x2 | x8 | x4 C2 D2 | x8 | x3 D x =F2 x | %12
 x8 | x2 D2 (DC) x2 | x6 || x2 | (B,2 C2) (D2 B,2) | x4 (D2 B,2) | x8 | x8 | D6 x2 | x2 D2 =F2 x2 | %22
 x8 | x2 D2 x4 | x6 |] %25
V:3
 D,2 | [G,,G,]2 [A,,G,]2 ([B,,G,][C,A,]) ([B,,G,][A,,F,]) | [G,,G,]3 [D,F,] [E,G,]2 [B,,G,]2 | %3
 [C,G,]2 G,2 [A,,A,]2 [B,,G,]2 | [C,G,]3 [C,G,] [G,,G,]2 G,2 | [C,G,]2 [B,,G,]2 [A,,G,]2 [E,G,]2 | %6
 [D,F,]6 F,2 | [B,,G,]2 G,2 [A,,A,]2 [B,,G,]2 | [G,,G,]3 [D,F,] [E,G,]2 [B,,G,]2 | %9
 [C,G,]2 G,2 [A,,A,]2 [B,,G,]2 | [C,G,]3 [C,G,] [G,,G,]2 G,2 | [G,B,]3 [F,A,] [E,G,]2 [D,G,]2 | %12
 [C,G,]6 [C,G,]2 | [E,G,]2 G,2 [D,G,]2 [D,F,]2 | [G,,G,]6 || [D,F,]2 | G,4 G,4 | G,4 G,4 | %18
 [C,G,]3 [C,G,] [C,G,]2 [B,,^G,]2 | [A,,A,]2 [C,A,]2 [D,A,]2 [A,,G,]2 | [D,F,]6 G,2 | %21
 G,2 [F,A,]2 [E,G,]2 [D,G,]2 | [C,G,]6 [C,G,]2 | [E,G,]2 G,2 [D,G,]2 [D,F,]2 | [G,,G,]6 |] %25
V:4
 D,2 | x8 | x8 | x2 (C,B,,) x4 | x6 G,2 | x8 | x6 (D,C,) | x2 (C,B,,) x4 | x8 | x2 (C,B,,) x4 | %10
 x6 G,2 | x8 | x8 | x2 (B,,C,) x4 | x6 || x2 | (G,,2 A,,2) (B,,2 G,,2) | (G,2 F,2) (E,2 D,2) | x8 | %19
 x8 | x6 G,2 | G,2 x6 | x8 | x2 (B,,C,) x4 | x6 |] %25

